X:1
T:Sealed Was the Tomb
T:Sealed Was the Tomb
T:Isaac Hickman Meredith, adapted from Gounod
T:Flora Kirkland, 1903
T:Public Domain Courtesy of the Cyber Hymnal™
T:Public Domain Courtesy of the Cyber Hymnal™
T:Public Domain Courtesy of the Cyber Hymnal™
C:Isaac Hickman Meredith, adapted from Gounod
Z:Public Domain
Z:Courtesy of the Cyber Hymnal™
%%score ( 1 2 ) ( 3 4 )
L:1/8
Q:1/4=110
M:4/4
K:C
V:1 treble 
V:2 treble 
V:3 bass 
V:4 bass 
V:1
 [EG]2"^Introduction" ([EA][EG]) [FG]2 [FG]2 | [EG]2 [Ec]2 [Fc]2 [^Fc]2 | [Ge]2 [Gc]2 (cB) (AB) | %3
w: ~ ~ * ~ ~|~ ~ ~ ~|~ ~ ~ * ~ *|
w: ~ ~ * ~ ~|~ ~ ~ ~|~ ~ ~ * ~ *|
 [EGc]6 z2 | [EG]2 [EG][EG] [EA]4 | [EA]2 [FA][FA] [FG]2 [FG]2 | [EG]2 [EG][Ec] [Fc]2 [FA]2 | %7
w: ~|1.~Sealed was the tomb,|guard- ed by sol- diers,|Bright- ly the moon- light|
w: ~|2.~Dark- ly they plan;|false- ly as dark- ly,|Stor- ies that He was|
 [Ec]2 B2 [Ec]4 | [EG]2 [EG][EG] [EA]4 | [EA]2 [FA][FA] [FG]2 [FG]2 | [EG]2 [EG][Ec] [Fc]2 [FA]2 | %11
w: shone a- round;|Road- way and hill|gleamed in the bright- ness,|Flood- ed with light the|
w: borne a- way—|Borne by His friends,|poor weak di- sci- ples,|Stol’n when the moon was|
 [Ec]2 B2 [Ec]4 | [B,G]2 [CA][CA] [DB]4 | [DB]2 [Ec][Ec] [Fd]2 [Fd]2 | %14
w: gar- den’s bound.|Bright- er the light|seen ’neath the ol- ives;|
w: bright as day!|Sol- diers of Rome|ne’er slept on dut- y,|
 [Fd]2 [Ec][Ec] [DB]2 [B,G]2 | [DB]2 [CA]2 [B,G-]2 !fermata![FG]2 | [EG]2 [EG][EG] [EA]4 | %17
w: Forms bright as sun- light,|’mid the trees, Sold-|iers were there, clad|
w: False was the tale for|sil- ver told; Death|could not hold that|
 [EA]2 [FA][FA] [FG]2 [FG]2 | [EG]2 [EG][Ec] [Fc]2 [FA]2 | [Ec]2 B2 [Ec]4 | E2 A^G BAcA | %21
w: as for war- fare; Lo!|they are gone, and who|are these? See|yon- der, hast’- ning to the ci-|
w: might- y Vic- tor! Lift|up your heads, ye gates|of gold! The|morn of glo- ry hath a- wak-|
 A2 ^G2 z GGG | B2 A2 z ABc | !fermata!B6 z2 | [Ed]2 [Ec]>[Ec] [EB]2 [EB]2 | %25
w: ty, The trem- bling sol-|diers in ter- ror go!|Earth-|quake as- tound- ing, strange|
w: ened, And death no long-|er holds bound- less pow’r;|Emp-|ty the pri- son, Je-|
 [^GB]2 [GB]>[Gc] [EB]2 [EA]2 | A2 GF EA[^Gc][GB] | [EA]6 ||"^Refrain" ([Ee][Ff]) | %29
w: light sur- roundi- ng, Drive|them a- way these things to show.|O|won- *|
w: sus has ris- en; Time|hath no rich- er, grand- er hour.|||
 [Gg]2 [Aa][Bb] [cc']2 [Bb][Gg] | [Aa]4 [Gg]2 z [Gg] | [cc']2 ([dd'][ee']) [dd']2 ([cc'][Bb]) | %32
w: der- ful light in the gar-|den, That fad-|eth not * a- way! *|
w: |||
 ([Aa]4 [Gg]2) z [Gg] | [Gg]2 [Aa][Bb] [cc']2 [Bb][Gg] | [Aa]4 [Gg]2 z [Gg] | %35
w: The * King|who was laid in the sha-|dow With vic-|
w: |||
 [cc']2 [cc'][cc'] [cc'][cb] [dd']>[cc'] | ([cc'][Bb][Aa][Ga] [cc']) z [^F^f][Gg] | %37
w: t’ry is crowned this glor- ious day.||
w: ||
 [Acfa]4 [Gceg] z2 [Gceg] | [egc'e']2 [cegc']c' c'b d'>c' | [cegc'] z [CEGc]2 !fermata![E,G,C]8 |] %40
w: |||
w: |||
V:2
 x8 | x8 | x4 F2 F2 | x8 | x8 | x8 | x8 | x2 (DE) x4 | x8 | x8 | x8 | x2 (DE) x4 | x8 | x8 | x8 | %15
 x8 | x8 | x8 | x8 | x2 (DF) x4 | x8 | x8 | x8 | x8 | x8 | x8 | A2 ^GF EA x2 | x6 || x2 | x8 | x8 | %31
 x8 | x8 | x8 | x8 | x8 | x8 | x8 | x4 [Bde]2 [fgb]2 | x12 |] %40
V:3
 C2 (CC) [B,D]2 [B,D]2 | [_B,C]2 [B,C]2 [A,C]2 [_A,C]2 | [G,C]2 [G,E]2 [G,D]2 [G,D]2 | %3
 [C,G,C]6 z2 | [C,C]2 [C,C][C,C] [C,C]4 | [C,C]2 [C,D][C,C] [D,B,]2 [D,B,]2 | %6
 [C,_B,]2 [C,B,][C,B,] [F,A,]2 [F,C]2 | G,2 [G,,G,]2 [C,G,]4 | [C,C]2 [C,C][C,C] [C,C]4 | %9
 [C,C]2 [C,D][C,C] [D,B,]2 [D,B,]2 | [C,_B,]2 [C,B,][C,B,] [F,A,]2 [F,C]2 | G,2 [G,,G,]2 [C,G,]4 | %12
 G,,4 G,,4 | G,,4 G,,4 | G,,4 G,,4 | G,,4 (z D, !fermata![G,,B,]2) | [C,C]2 [C,C][C,C] [C,C]4 | %17
 [C,C]2 [C,D][C,C] [D,B,]2 [D,B,]2 | [C,_B,]2 [C,B,][C,B,] [F,A,]2 [F,C]2 | G,2 [G,,G,]2 [C,G,]4 | %20
 (A,,E,)[A,C]E, A,,E,[A,C]E, | (E,,E,) ([^G,D]E,) E,,E, [G,D]E, | %22
 (A,,E,) ([A,C]E,) (A,,E,)[A,C]E, | (E,,E,^G,B, !fermata![E,G,B,E]2) z2 | %24
 [E,B,]2 [E,A,]>[E,A,] [E,^G,]2 [E,G,]2 | [E,D]2 [E,D]>[E,E] [A,D]2 [A,C]2 | %26
 A,2 G,F, E,A,[E,E][E,D] | [A,C]6 || z2 | (C,,[E,G,C])[G,CE] z (E,,[E,G,C])[G,CE] z | %30
 (F,,[F,A,C][A,CF]) z (C,,[E,G,C][G,CE]) z | (C,,[E,G,C])[G,CE] z E,,[E,G,C][G,CE] z | %32
 (D,,[F,G,B,][G,B,F]) z (G,,[F,G,B,][G,B,F]) z | C,,[E,G,C][G,CE] z E,,[E,G,C][G,CE] z | %34
 (F,,[F,A,C][A,CF]) z (C,,[E,G,C][G,CE]) z | (E,,[E,G,C])[G,CE] z G,,[F,G,B,][G,B,F] z | %36
 (C,,[E,G,C][G,CE]) z E,,[E,G,C][G,CE] z | F,,[F,A,C][A,CF] z C,,[E,G,C][G,CE] z | %38
 C,,[E,G,C][G,CE] z D,,[F,G,B,][G,B,F] z | [C,E,G,] z [C,,G,,C,]2 !fermata![C,,G,,C,]8 |] %40
V:4
 x8 | x8 | x8 | x8 | x8 | x8 | x8 | G,2 x6 | x8 | x8 | x8 | G,2 x6 | (G,,D,)G,D, (G,,D,G,D,) | %13
 (G,,D,)G,D, (G,,D,) (G,D,) | (G,,D,)G,D, (G,,D,) (G,D,) | (G,,D,) ^F,D, G,,2 x2 | x8 | x8 | x8 | %19
 G,2 x6 | x8 | x8 | x8 | x8 | x8 | x8 | A,2 G,F, E,A, x2 | x6 || x2 | x8 | x8 | x8 | x8 | x8 | x8 | %35
 x8 | x8 | x8 | x8 | x12 |] %40

